X:16272
T:Taffy & Mally. BF13.108
M:6/8
Q:110
C:In hand "B"
S:MS13,c1850,Lakes,Browne Coll..
R:Quadrille
O:England
A:Lakes
N:I felt the need to do some tidying up on this one, but the original is
N:so ambiguous I've left it there for you to admire..CGP
Z:vmp.Chris Partington
K:D
"Unedited Version"
A2|d/d/ dcd|f d/c/ d2|ece Ace|g3ef|g2ge e|f2fd d|e2d cBc|d3d2::!
A2A2GFG|A2d fed|c2e2g2e2|f2d2e2|f2gab2|g2f2d2|c2A2g2e2|c2c4:|]!
"Edited Version"
A|d2d dcd|f2d c2d|ece Ace|g3-gef|g2g ee2|f2f dd2|e2d cBc|d3-d2::!
A|A3 GFG|A2d fed|c2e g2e|f3d2e|f2g ab2|gf2d3|c2A ge2|d3-d2:|]


